Papirus/24x24/panel/yd-busy1.svg

<?xml version="1.0" encoding="UTF-8" standalone="no"?>
<svg xmlns:dc="http://purl.org/dc/elements/1.1/" xmlns:cc="http://creativecommons.org/ns#" xmlns:rdf="http://www.w3.org/1999/02/22-rdf-syntax-ns#" xmlns:svg="http://www.w3.org/2000/svg" xmlns="http://www.w3.org/2000/svg" version="1.0" width="24" height="24" id="svg2817">
    <metadata id="metadata57">
        <rdf:RDF>
            <cc:Work rdf:about="">
                <dc:format>
                    image/svg+xml
                </dc:format>
                <dc:type rdf:resource="http://purl.org/dc/dcmitype/StillImage"/>
                <dc:title/>
            </cc:Work>
        </rdf:RDF>
    </metadata>
    <path style="opacity:1;fill:#ffffff;fill-opacity:1" d="m 4.0005167,12.028403 c -0.1531036,0.09683 -0.2714577,0.183901 -0.3589028,0.254735 0.098857,-0.07922 0.2211268,-0.165241 0.3589028,-0.254735 z m 15.6888943,0.190235 c 0.03598,0.03094 0.07276,0.06168 0.101539,0.09104 -0.02212,-0.02253 -0.05785,-0.0547 -0.101539,-0.09104 z m -8.035061,-1.7792 c 4.706288,-0.03032 6.944162,1.028651 7.772618,1.584101 C 18.516835,11.410242 16.628096,10.606104 15.781709,9.7363565 14.973004,8.9052571 14.414353,6.8957268 11.67652,6.9134081 8.9392395,6.9312917 8.4063187,8.8956579 7.5347674,9.7905744 6.8207661,10.524466 4.9872785,11.385579 4.0008592,12.027949 4.9328623,11.436383 7.1602355,10.469398 11.654556,10.439493 Z m 2.008255,-2.2005688 c 0.257461,-0.0016 0.614389,0.1773342 0.854429,0.4696443 0.341273,0.4149233 0.344972,0.9083393 -0.1478,0.9115405 -0.493271,0.00305 -0.992129,-0.48656 -1.07644,-0.9032195 -0.05914,-0.2940524 0.112797,-0.4766017 0.369817,-0.4779359 z M 11.697126,8.06525 c 0.421663,-0.00224 0.761541,0.2887916 0.759487,0.651296 -0.0024,0.361663 -0.346013,0.6576968 -0.767656,0.6600684 -0.421838,0.00259 -0.76167,-0.2883086 -0.759666,-0.6508325 0.0024,-0.3616466 0.345903,-0.6574529 0.767881,-0.6604988 z M 8.8689741,8.7451702 C 9.1133024,8.4496546 9.4721437,8.2662813 9.7292097,8.2642196 9.9860186,8.2625808 10.156198,8.4428489 10.093093,8.7372527 10.003499,9.1550791 9.4984196,9.6511616 9.0050724,9.6545359 8.5126548,9.6578001 8.5226333,9.164648 8.8689225,8.7451564 Z M 19.839461,13.564923 c 0.01034,-1.274973 -3.623048,-2.172254 -8.112773,-2.13621 -4.4894682,0.03611 -8.1374899,0.991316 -8.1466671,2.266056 -0.00682,0.862627 1.6552176,1.797435 4.120028,2.300843 0.9904264,0.358559 2.3883911,0.573275 3.9433671,0.563038 1.532546,-0.0098 2.916365,-0.235584 3.908517,-0.597058 2.54585,-0.537556 4.280713,-1.51876 4.287381,-2.396737 z m -8.191542,2.392323 c -1.9522144,0.01282 -3.5334163,-0.265021 -3.5299394,-0.766775 0.00303,-0.501356 1.5879355,-0.895467 3.5404374,-0.907914 1.952136,-0.01335 3.532546,0.361613 3.529656,0.863237 -0.003,0.501127 -1.588267,0.798826 -3.540215,0.811476 z" id="yandex-ufo"/>
</svg>

<?xml version="1.0" encoding="UTF-8" standalone="no"?>
<svg id="svg2817" xmlns:rdf="http://www.w3.org/1999/02/22-rdf-syntax-ns#" xmlns="http://www.w3.org/2000/svg" height="24" width="24" version="1.0" xmlns:cc="http://creativecommons.org/ns#" xmlns:dc="http://purl.org/dc/elements/1.1/">
 <metadata id="metadata57">
  <rdf:RDF>
   <cc:Work rdf:about="">
    <dc:format>image/svg+xml</dc:format>
    <dc:type rdf:resource="http://purl.org/dc/dcmitype/StillImage"/>
    <dc:title/>
   </cc:Work>
  </rdf:RDF>
 </metadata>
 <path id="yandex-ufo" d="m4.0005 12.028c-0.1531 0.09683-0.27146 0.1839-0.3589 0.25474 0.098857-0.07922 0.22113-0.16524 0.3589-0.25474zm15.689 0.19024c0.03598 0.03094 0.07276 0.06168 0.10154 0.09104-0.02212-0.02253-0.05785-0.0547-0.10154-0.09104zm-8.0351-1.7792c4.7063-0.03032 6.9442 1.0287 7.7726 1.5841-0.911-0.613-2.8-1.417-3.646-2.2866-0.809-0.8311-1.368-2.8407-4.105-2.823-2.7378 0.0179-3.2707 1.9823-4.1422 2.8772-0.714 0.7334-2.5475 1.5954-3.5339 2.2374 0.932-0.592 3.1593-1.559 7.6541-1.589zm2.0083-2.2006c0.25746-0.0016 0.61439 0.17733 0.85443 0.46964 0.34127 0.41492 0.34497 0.90834-0.1478 0.91154-0.49327 0.00305-0.99213-0.48656-1.0764-0.90322-0.05914-0.29405 0.1128-0.4766 0.36982-0.47794zm-1.966-0.1732c0.42166-0.00224 0.76154 0.28879 0.75949 0.6513-0.0024 0.36166-0.34601 0.6577-0.76766 0.66007-0.42184 0.00259-0.76167-0.28831-0.75967-0.65083 0.0024-0.36165 0.3459-0.65745 0.76788-0.6605zm-2.828 0.68c0.2443-0.2955 0.6031-0.4789 0.8602-0.481 0.2568-0.0016 0.4268 0.1786 0.3638 0.4731-0.09 0.4178-0.5946 0.9139-1.0879 0.9172-0.4924 0.0033-0.4825-0.4899-0.1362-0.9093zm10.97 4.8198c0.01034-1.275-3.623-2.1723-8.1128-2.1362-4.4895 0.03611-8.1375 0.99132-8.1467 2.2661-0.00682 0.86263 1.6552 1.7974 4.12 2.3008 0.99043 0.35856 2.3884 0.57328 3.9434 0.56304 1.5325-0.0098 2.9164-0.23558 3.9085-0.59706 2.5458-0.53756 4.2807-1.5188 4.2874-2.3967zm-8.1915 2.3923c-1.9522 0.01282-3.5334-0.26502-3.5299-0.76678 0.00303-0.50136 1.5879-0.89547 3.5404-0.90791 1.9521-0.01335 3.5325 0.36161 3.5297 0.86324-0.003 0.50113-1.5883 0.79883-3.5402 0.81148z" fill="#fff"/>
</svg>
